X: 3296
T: Bell Harbour Hills
R: waltz
M: 3/4
K: Gmajor
M:3/4
K:G
GA|B2 d2 B/d/B|G4 G/A/G|F3 E FE|D3 B cA|
B2 d2 B2|G2 B3 G|A4 AB|A2 G2 A2|
B2 d2 B2|G4 G/A/G|F3 E FE|D3 B cA|
B3 c dB|A3 c BA|G2 B2 d2|g4:|
GA|B4 A2|G4 d/c/d|e4 d/c/d|G4 A2|
B4 A2|G2 B3 G|A4 AB|A2 G2 A2|
B4 A2|G4 d/c/d|e3 d ef|g3 g fe|
d3 B cA|B3 G AF|G2 B2 d2|g4:|

